assets/img/braze_icons/link-01.svg

<svg fill="none" height="24" viewBox="0 0 24 24" width="24" xmlns="http://www.w3.org/2000/svg"><g clip-rule="evenodd" fill="#801ed7" fill-rule="evenodd"><path d="m16.2071 7.79284c.3905.39052.3905 1.02369 0 1.41421l-7 6.99995c-.39052.3906-1.02369.3906-1.41421 0-.39053-.3905-.39053-1.0236 0-1.4142l7.00001-6.99996c.3905-.39053 1.0237-.39053 1.4142 0z"/><path d="m6.34314 10.5858c.39053.3905.39053 1.0236 0 1.4142l-1.41421 1.4142c-1.5621 1.5621-1.5621 4.0947 0 5.6568 1.56209 1.5621 4.09475 1.5621 5.65687 0l1.4142-1.4142c.3905-.3905 1.0237-.3905 1.4142 0s.3905 1.0237 0 1.4142l-1.4142 1.4142c-2.34315 2.3432-6.14214 2.3432-8.48529 0-2.34314-2.3431-2.34314-6.1421 0-8.4852l1.41422-1.4142c.39052-.3906 1.02369-.3906 1.41421 0z"/><path d="m12 3.51468c2.3431-2.34314 6.1421-2.34314 8.4853 0 2.3431 2.34315 2.3431 6.14214 0 8.48532l-1.4142 1.4142c-.3906.3905-1.0237.3905-1.4143 0-.3905-.3905-.3905-1.0237 0-1.4142l1.4143-1.4142c1.5621-1.56215 1.5621-4.09481 0-5.6569-1.5621-1.5621-4.0948-1.5621-5.6569 0l-1.4142 1.41421c-.3905.39052-1.0237.39052-1.4142 0s-.3905-1.02369 0-1.41421z"/></g></svg>

<svg width="24" height="24" viewBox="0 0 24 24" fill="none" xmlns="http://www.w3.org/2000/svg">
<path fill-rule="evenodd" clip-rule="evenodd" d="M16.2071 7.79284C16.5976 8.18336 16.5976 8.81653 16.2071 9.20705L9.2071 16.207C8.81658 16.5976 8.18341 16.5976 7.79289 16.207C7.40236 15.8165 7.40236 15.1834 7.79289 14.7928L14.7929 7.79284C15.1834 7.40231 15.8166 7.40231 16.2071 7.79284Z" fill="#801ED7"/>
<path fill-rule="evenodd" clip-rule="evenodd" d="M6.34314 10.5858C6.73367 10.9763 6.73367 11.6094 6.34314 12L4.92893 13.4142C3.36683 14.9763 3.36683 17.5089 4.92893 19.071C6.49102 20.6331 9.02368 20.6331 10.5858 19.071L12 17.6568C12.3905 17.2663 13.0237 17.2663 13.4142 17.6568C13.8047 18.0473 13.8047 18.6805 13.4142 19.071L12 20.4852C9.65685 22.8284 5.85786 22.8284 3.51471 20.4852C1.17157 18.1421 1.17157 14.3431 3.51471 12L4.92893 10.5858C5.31945 10.1952 5.95262 10.1952 6.34314 10.5858Z" fill="#801ED7"/>
<path fill-rule="evenodd" clip-rule="evenodd" d="M12 3.51468C14.3431 1.17154 18.1421 1.17154 20.4853 3.51468C22.8284 5.85783 22.8284 9.65682 20.4853 12L19.0711 13.4142C18.6805 13.8047 18.0474 13.8047 17.6568 13.4142C17.2663 13.0237 17.2663 12.3905 17.6568 12L19.0711 10.5858C20.6332 9.02365 20.6332 6.49099 19.0711 4.9289C17.509 3.3668 14.9763 3.3668 13.4142 4.9289L12 6.34311C11.6095 6.73363 10.9763 6.73363 10.5858 6.34311C10.1953 5.95259 10.1953 5.31942 10.5858 4.9289L12 3.51468Z" fill="#801ED7"/>
</svg>
